X:1
T:My Darling Asleep
L:1/8
M:6/8
I:linebreak $
K:D
V:1 treble
V:1
 a2 g2 | "D"fdd "A"cAA | "G"BAG "D"A2 G | "D"FAA "(Bm)"def | "Em"gfg "A"eag | "D"fdd "A"cAA | "G"BAG "D"A2 G |$
 "D"FAA "(Bm)"def | "A"gec "D"d2 A :|: "D"FAA "G"BAA | "D"FAA "G"[GB]2 A | "D"FAA "(Bm)"def |$
 "Em"gfg "A"eag | "D"fdd "A"cAA | "G"BAG "D"A2 G | "D"FAA "(Bm)"def | "A"gec "D"d2 :|
